images/standarts/standart-16.svg

<svg width="25" height="24" viewBox="0 0 25 24" fill="none" xmlns="http://www.w3.org/2000/svg">
<g clip-path="url(#clip0_68_4604)">
<path fill-rule="evenodd" clip-rule="evenodd" d="M21.5 3H3.5V11L11.5 11H13.5V13V15H11.5V13H3.5V21H11.5V17H13.5V21H21.5V3Z" fill="white"/>
</g>
<defs>
<clipPath id="clip0_68_4604">
<rect width="24" height="24" fill="white" transform="translate(0.5)"/>
</clipPath>
</defs>
</svg>

<svg width="25" height="24" fill="none" xmlns="http://www.w3.org/2000/svg"><g clip-path="url(#clip0_68_4604)"><path fill-rule="evenodd" clip-rule="evenodd" d="M21.5 3h-18v8h10v4h-2v-2h-8v8h8v-4h2v4h8V3z" fill="#fff"/></g><defs><clipPath id="clip0_68_4604"><path fill="#fff" transform="translate(.5)" d="M0 0h24v24H0z"/></clipPath></defs></svg>
